X:1
T:25 Lieder
T:Der Winter
T:21. Der Winter 
T:Corona Elisabeth Wilhelmine Schröter
T:(Anonymous)
T:25 Lieder
T:NOTES TO TRANSCRIBER: 1. Full German text for the extra lyric verses of Der Winter is not yet available on Lieder.net: ask reviewer DanielR if you need help. 2. Please transcribe into the Soprano clef, as published in the original IMSLP edition: the reviewer will convert staves to Treble clef before the score is published to the Lieder Corpus. 3. System breaks have been changed deliberately, to achieve a more balanced layout and to avoid a split bar. 4. The tempo direction "Mutig, doch nicht zu geschwind" means "Boldly, but not too fast".... you can choose the tempo. 5. There is a misprint in bar 4 (5) on the syllable "-wand". Either the note should be a quaver (not crotchet), or the quaver rest should be removed. To avoid crossing the beat, it's probably better to change the F# to  a quaver (1/8 note). 6. For a discussion about dynamic marks in 25 Lieder , see a thread on the MuseScore forum: https://musescore.org/en/node/302302 
T:Creative Commons copyright waiver (CC0 1.0 Universal)
C:Corona Elisabeth Wilhelmine Schröter
Z:Anonymous
Z:Creative Commons copyright waiver (CC0 1.0 Universal)
L:1/8
Q:1/4=114
M:2/4
K:G
V:1 alto1 nm="Singstimme\nVoice"
V:1
"^Mutig, doch nicht zu geschwind" D | G3/2 F/ G ^G | A c B d | e c A G | (GF) z z/ D/ | %5
w: Ha!|blas- ser Win- ter|bist du da, in|dei- nem Schnee- ge-|wand? * Will-|
 D D c3/2 B/ | (A/G/) (F/E/) D D | G E/>^C/ D F | G2 z2 |] %9
w: kom- men, trau- lich|rei- * che * mir die|kal- te * dür- re|Hand!|

